X: 40853
T: Traveller, The
R: reel
M: 4/4
K: Gmajor
D2|G2 BG dGBG|ABcd cBAG|Bdgd (3efg dB|cBAG FADF|
G2 BG dGBG|ABcd cBAG|Bdgd (3efg dB|BGAF G2||
Bd|{a}g2 dg Bgdf|gabg agef|g2 dg BgdB|cBAG FADF|
{f}g2 dg Bgdg|gabg agef|gfga gfed|(3efg fa gedB||

